X: 1
T: Hughie Shorty's Reel
C: Johny Wilmot
N: RJ R-98
M: C|
Z: Transcribed to abc by Mary Lou Knack
R: reel
K: G
|:\
"G"G2BG "D"cAFA | "G"GABd g2fg |\
"C"ecAc "G"dBGB | "Am"cAAB "D"AFD2 |\
"G"DGBG "D"cAFA | "G"GABd g2fg |
"C"ecAc "G"dBGB | "D"cAFA "G"G4 ::\
"G"g2dg bgag | "C"ec c/c/c efge |\
"G"dB B/B/B dBGB |[1 "C"cAAB "D"AFD2 :|
[2 "D"cAGF "G"G4 :|3 "C"cAAB "D"AFD2 |]\
"C"G,CEC "G"B,D[dG]B | "D"cdef "G"g2fg |\
"C"ecAc "G"dBGB | "D"cAFA "G"G4 |]


